X:1
T:Title
%%score { ( 1 3 ) | 2 }
L:1/8
M:4/4
K:F
V:1 treble nm="Grand Piano"
V:3 treble 
V:2 bass 
V:1
 z4 z2[Q:1/4=100] [DF]2 | [Fd]>[_EA] [Dc]>[DB] [DF]2 [EG]2 | B4 z4 | _e>=B d>c G2 A2 | %4
[M:3/4] G4 z2 |[M:1/4] [DF]2 |[M:4/4] [Fd]>[_EA] [Dc]>[DB] [B,DF]2 [DFG]2 | A4 z4 | %8
 [Ec]>[Ed] [Fc]>[Fd] [Ec]2 G2 |[M:7/8] c-c-c- c- c3 |[M:1/4] ^c2 |[M:4/4] [Dd]2 [Fd]2 c2 c2 | %12
 B2 B2 G3 G | F2 [FB]2 [Fd]3 [FB] |[M:9/8] [Fd]3 [_Ec]3 [DB]3 |] %15
V:2
 z4 z2 [B,,B,]2 | [B,,B,]>[B,,B,] [B,,F,]>[B,,F,] [B,,B,]2 [B,,B,]2 | %2
 [F,C_E]2 [F,C]2 [F,CE]2 [F,A,]2 | [F,A,F]>[F,_A,F] [F,B,F]>[F,=A,F] [F,B,E]2 [F,C_E]2 | %4
[M:3/4] [B,,B,]2 [B,,B,]2 [B,,B,]2 |[M:1/4] [B,,B,]2 | %6
[M:4/4] [B,,B,]>[B,,B,] [B,,F,]>[B,,F,] B,,2 B,,2 | C,2 C,2 [C,A,]2 [C,A,]2 | %8
 [C,G,]>[C,B,] [C,A,]>[C,A,] [C,B,]2[K:treble] [B,CE]2 |[M:7/8] [A,CF]2[K:bass] [G,B,]2 [F,A,]3 | %10
[M:1/4] [F,A,_E]2 |[M:4/4] [B,,B,]2 [B,,B,]2 [F,A,F]2 [^F,A,_E]2 | %12
 [G,B,D]2 [G,B,D]2 [E,B,^C]3 [E,B,C] | [F,B,D]2 [D,B,]2 [B,,B,]3 [D,B,] | %14
[M:9/8] [F,B,]3 [F,A,]3 [B,,B,]3 |] %15
V:3
 x8 | x8 | z2 _E2 A2 F2 | x8 |[M:3/4] _E2 E2 [DF]2 |[M:1/4] x2 |[M:4/4] x8 | %7
 [CF]2 [CF]2 [Fc]2 [Fc]2 | x8 |[M:7/8] z2 E2 _E3 |[M:1/4] x2 |[M:4/4] x8 | x8 | x8 |[M:9/8] x9 |] %15

